dist/svg/u1F3D5.svg

<?xml version="1.0" encoding="UTF-8"?><svg id="Layer_1" xmlns="http://www.w3.org/2000/svg" viewBox="0 0 40 40"><g><g><path d="M27.79566,12.03064l-8.55902,10.67376c-.7024,.87594-.0788,2.17533,1.04399,2.17533h17.11805c1.12278,0,1.74638-1.29938,1.04399-2.17533l-8.55902-10.67376c-.53569-.66804-1.55229-.66804-2.08797,0Z" style="fill:#4fc578;"/><path d="M28.02872,7.52354l-7.10748,8.86357c-.54559,.68039-.06121,1.68969,.81092,1.68969h14.21496c.87213,0,1.35651-1.0093,.81092-1.68969l-7.10748-8.86357c-.4161-.5189-1.20574-.5189-1.62184,0Z" style="fill:#4fc578;"/><path d="M28.23697,3.93991l-5.56944,6.94552c-.40548,.50567-.04549,1.25578,.60268,1.25578h11.13888c.64816,0,1.00816-.75011,.60268-1.25578l-5.56944-6.94552c-.30924-.38565-.89611-.38565-1.20535,0Z" style="fill:#4fc578;"/></g><g><path d="M19.34487,15.02382l-8.55902,10.67376c-.7024,.87594-.0788,2.17533,1.04399,2.17533H28.94788c1.12278,0,1.74638-1.29938,1.04399-2.17533l-8.55902-10.67376c-.53569-.66804-1.55229-.66804-2.08797,0Z" style="fill:#45aa1f;"/><path d="M19.57794,10.51673l-7.10748,8.86357c-.54559,.68039-.06121,1.68969,.81092,1.68969h14.21496c.87213,0,1.35651-1.0093,.81092-1.68969l-7.10748-8.86357c-.4161-.5189-1.20574-.5189-1.62184,0Z" style="fill:#53ba24;"/><path d="M19.78618,6.9331l-5.56944,6.94552c-.40548,.50567-.04549,1.25578,.60268,1.25578h11.13888c.64816,0,1.00816-.75011,.60268-1.25578l-5.56944-6.94552c-.30924-.38565-.89611-.38565-1.20535,0Z" style="fill:#23b169;"/></g><g><path d="M28.27994,13.26377H11.635c-.62308,0-1.04547,.36816-1.2964,.93848L1.90679,33.36536c-.25385,.57694,.1687,1.22452,.79902,1.22452H37.35096c.63032,0,1.05287-.64758,.79902-1.22452L29.71817,14.20225c-.25094-.57031-.81516-.93848-1.43824-.93848Z" style="fill:#ff8100;"/><path d="M21.16004,33.36334L12.71397,14.16807c-.21732-.49442-.68577-.9043-1.19676-.9043-.53241,.03438-.97944,.40988-1.19676,.9043L1.87437,33.36334c-.25425,.57789,.16908,1.22654,.80033,1.22654H20.35971c.63126,0,1.05459-.64866,.80033-1.22654Z" style="fill:#ff9e00;"/><path d="M15.47115,34.58988c-3.17069,0-3.95389-19.50483-3.95389-19.50483,0,0-.7832,19.50483-3.95389,19.50483h7.90779Z" style="fill:#965343;"/></g></g><rect width="40" height="40" style="fill:none;"/></svg>

<svg id="Layer_1" data-name="Layer 1" xmlns="http://www.w3.org/2000/svg" viewBox="0 0 40 40"><defs><style>.cls-1{fill:#4fc578;}.cls-2{fill:#45aa1f;}.cls-3{fill:#53ba24;}.cls-4{fill:#23b169;}.cls-5{fill:#ff8100;}.cls-6{fill:#ff9e00;}.cls-7{fill:#965343;}.cls-8{fill:none;}</style></defs><path class="cls-1" d="M27.8,12.031,19.237,22.7a1.338,1.338,0,0,0,1.044,2.176H37.4A1.339,1.339,0,0,0,38.443,22.7L29.884,12.031A1.338,1.338,0,0,0,27.8,12.031Z"/><path class="cls-1" d="M28.029,7.524l-7.108,8.863a1.04,1.04,0,0,0,.811,1.69H35.947a1.04,1.04,0,0,0,.811-1.69L29.651,7.524A1.039,1.039,0,0,0,28.029,7.524Z"/><path class="cls-1" d="M28.237,3.94l-5.569,6.945a.772.772,0,0,0,.6,1.256H34.409a.773.773,0,0,0,.6-1.256L29.442,3.94A.772.772,0,0,0,28.237,3.94Z"/><path class="cls-2" d="M19.345,15.024,10.786,25.7a1.338,1.338,0,0,0,1.044,2.175H28.948A1.338,1.338,0,0,0,29.992,25.7L21.433,15.024A1.338,1.338,0,0,0,19.345,15.024Z"/><path class="cls-3" d="M19.578,10.517,12.47,19.38a1.04,1.04,0,0,0,.811,1.69H27.5a1.04,1.04,0,0,0,.811-1.69L21.2,10.517A1.039,1.039,0,0,0,19.578,10.517Z"/><path class="cls-4" d="M19.786,6.933l-5.569,6.946a.772.772,0,0,0,.6,1.255H25.958a.772.772,0,0,0,.6-1.255L20.992,6.933A.773.773,0,0,0,19.786,6.933Z"/><path class="cls-5" d="M28.28,13.264H11.635a1.382,1.382,0,0,0-1.3.938L1.907,33.365a.873.873,0,0,0,.8,1.225H37.351a.873.873,0,0,0,.8-1.225L29.718,14.2A1.571,1.571,0,0,0,28.28,13.264Z"/><path class="cls-6" d="M21.16,33.363,12.714,14.168a1.419,1.419,0,0,0-1.2-.9,1.452,1.452,0,0,0-1.2.9l-8.446,19.2a.875.875,0,0,0,.8,1.227H20.36A.875.875,0,0,0,21.16,33.363Z"/><path class="cls-7" d="M15.471,34.59c-3.171,0-3.954-19.505-3.954-19.505S10.734,34.59,7.563,34.59Z"/><rect class="cls-8" width="40" height="40"/></svg>
